!!! OTL: Berkowitz138
!!! Chapter: 1
!!! Section: I
!!! Page: 31
!!! Mode: 
!!! Encoder: DJB
**kern
*staff1
*I"Piano
=1-
*clefC3
*k[b-]
*d:
*M4/4
4r
4r
4r
4a\
=2
4.d\
8e\
4f\
4d\
=3
2b-\
4a\
4d\
=4
4g\
4f\
4e\
4d\
=5
8c#\L
8d\
8e\
8f\J
4e\
4a\
=6
4.d\
8e\
4f\
4d\
=7
4b-\
8cc\L
8b-\J
4a\
4r
=8
4g\
8f\L
8e\J
4f\
8e\L
8d\J
=9
!!linebreak:original
4.e\
8f\
4d\
4r
==
*-
